packages/icons/web/live_chat_large.svg

<svg width="24" height="24" viewBox="0 0 24 24" fill="none" xmlns="http://www.w3.org/2000/svg">
<path fill-rule="evenodd" clip-rule="evenodd" d="M5 12C5 8.80754 8.0044 6 12 6C15.9956 6 19 8.80754 19 12C19 15.1925 15.9956 18 12 18C11.1142 18 10.3325 17.8436 9.77095 17.6856C9.49162 17.6069 9.2709 17.5291 9.12397 17.4727C9.05062 17.4445 8.99603 17.4218 8.9621 17.4073C8.94515 17.4001 8.93339 17.3948 8.92707 17.392L8.92224 17.3898L8.92216 17.3898L8.92171 17.3896L8.60165 17.2394L8.25562 17.3266L6.03875 17.8853L6.41004 16.2173L6.5262 15.6954L6.16061 15.313L6.15904 15.3113C6.15478 15.3066 6.14577 15.2965 6.13266 15.2811C6.1064 15.2504 6.06397 15.1989 6.01059 15.1275C5.90354 14.9844 5.75445 14.7643 5.60366 14.4752C5.30202 13.8967 5 13.0548 5 12ZM12 4C7.15904 4 3 7.46047 3 12C3 13.4452 3.41494 14.6033 3.83027 15.3998C4.01497 15.7541 4.20101 16.0394 4.35374 16.2503L3.73408 19.0341L3.38163 20.6175L4.95457 20.2211L8.42476 19.3465C8.6205 19.4211 8.89349 19.5163 9.22905 19.6107C9.91749 19.8045 10.8858 20 12 20C16.841 20 21 16.5395 21 12C21 7.46047 16.841 4 12 4ZM8 13C8.55228 13 9 12.5523 9 12C9 11.4477 8.55228 11 8 11C7.44772 11 7 11.4477 7 12C7 12.5523 7.44772 13 8 13ZM13 12C13 12.5523 12.5523 13 12 13C11.4477 13 11 12.5523 11 12C11 11.4477 11.4477 11 12 11C12.5523 11 13 11.4477 13 12ZM16 13C16.5523 13 17 12.5523 17 12C17 11.4477 16.5523 11 16 11C15.4477 11 15 11.4477 15 12C15 12.5523 15.4477 13 16 13Z" fill="#212933"/>
</svg>

<svg width="24" height="24" fill="none" xmlns="http://www.w3.org/2000/svg">
    <path fill-rule="evenodd" clip-rule="evenodd" d="M5 12c0-3.192 3.004-6 7-6s7 2.808 7 6c0 3.193-3.004 6-7 6a8.329 8.329 0 01-2.876-.527 4.763 4.763 0 01-.162-.066l-.035-.015-.005-.002-.32-.15-.346.087-2.217.558.371-1.668.116-.522-.365-.382-.002-.002a3.029 3.029 0 01-.148-.184 4.812 4.812 0 01-.407-.652A5.338 5.338 0 015 12zm7-8c-4.841 0-9 3.46-9 8 0 1.445.415 2.603.83 3.4.185.354.371.64.524.85l-.62 2.784-.352 1.584 1.573-.397 3.47-.875A10.324 10.324 0 0012 20c4.841 0 9-3.46 9-8s-4.159-8-9-8zm-4 9a1 1 0 100-2 1 1 0 000 2zm5-1a1 1 0 11-2 0 1 1 0 012 0zm3 1a1 1 0 100-2 1 1 0 000 2z" fill="currentColor"/>
</svg>
